src/assets/img/dashboard/stack_icon.svg

<svg fill="none" height="33" viewBox="0 0 32 33" width="32" xmlns="http://www.w3.org/2000/svg"><rect fill="#5546ff" height="32" rx="10" width="32" y=".5"/><g fill="#fff"><path d="m23.9992 17.5574v1.9268h-4.8554l3.3252 5.0156h-2.5114l-3.9997-6.052-3.9859 6.052h-2.51137l3.31827-5.0156h-4.7789v-1.9406h15.9992z"/><path d="m24.0002 15.4423v-1.9268h-4.8554l3.3252-5.01552h-2.5114l-3.9998 6.05192-3.9858-6.05192h-2.51139l3.31829 5.01552h-4.77892v1.9407h15.99922z"/></g></svg>

<svg width="32" height="33" viewBox="0 0 32 33" fill="none" xmlns="http://www.w3.org/2000/svg">
<rect y="0.5" width="32" height="32" rx="10" fill="#5546FF"/>
<path d="M23.9992 17.5574V19.4842H19.1438L22.469 24.4998H19.9576L15.9579 18.4478L11.972 24.4998H9.46063L12.7789 19.4842H8V17.5436H23.9992V17.5574Z" fill="white"/>
<path d="M24.0002 15.4423V13.5155H19.1448L22.47 8.49998H19.9586L15.9588 14.5519L11.973 8.49998H9.46161L12.7799 13.5155H8.00098V15.4562H24.0002V15.4423Z" fill="white"/>
</svg>
